Adwaita/symbolic/status/network-vpn-disabled-symbolic.svg

<?xml version="1.0" encoding="UTF-8"?>
<svg height="16px" viewBox="0 0 16 16" width="16px" xmlns="http://www.w3.org/2000/svg">
    <g fill="#2e3436">
        <path d="m 7.917969 1 c -1.617188 0 -2.917969 1.300781 -2.917969 2.917969 v 1.082031 c -0.246094 0.007812 -0.484375 0.105469 -0.664062 0.277344 l 5.726562 5.722656 h 0.90625 c 0.570312 0 1.03125 -0.460938 1.03125 -1.03125 v -3.9375 c 0.007812 -0.5625 -0.4375 -1.023438 -1 -1.03125 v -1.082031 c 0 -1.617188 -1.300781 -2.917969 -2.917969 -2.917969 z m 0.082031 2 c 0.554688 0 1 0.445312 1 1 v 1 h -2 v -1 c 0 -0.554688 0.445312 -1 1 -1 z m -4 4.0625 v 2.90625 c 0 0.570312 0.460938 1.03125 1.03125 1.03125 h 1.96875 v 1.21875 c -0.316406 0.179688 -0.578125 0.441406 -0.757812 0.757812 h -3.246094 c -0.550782 0 -1 0.449219 -1 1 c 0 0.550782 0.449218 1 1 1 h 3.285156 c 0.363281 0.601563 1.011719 0.972657 1.714844 0.972657 s 1.355468 -0.371094 1.71875 -0.972657 h 2.199218 l -2 -2 h -0.164062 c -0.179688 -0.3125 -0.4375 -0.574218 -0.75 -0.753906 v -0.160156 z m 3.996094 5.875 c 0.554687 0 1.007812 0.449219 1.003906 1.003906 c 0.003906 0.558594 -0.449219 1.007813 -1.003906 1.007813 c -0.554688 0 -1.007813 -0.449219 -1.007813 -1.007813 c 0 -0.554687 0.453125 -1.003906 1.007813 -1.003906 z m 4.042968 0.039062 l 1.679688 1.683594 c 0.183594 -0.183594 0.285156 -0.425781 0.289062 -0.683594 c 0 -0.550781 -0.449218 -1 -1 -1 z m 0 0"/>
        <path d="m 1.53125 0.457031 l -1.0625 1.0625 l 14 14 l 1.0625 -1.0625 z m 0 0"/>
    </g>
</svg>

<?xml version="1.0" encoding="UTF-8"?>
<svg xmlns="http://www.w3.org/2000/svg" xmlns:xlink="http://www.w3.org/1999/xlink" width="16px" height="16px" viewBox="0 0 16 16" version="1.1">
<g id="surface113689">
<path style=" stroke:none;fill-rule:nonzero;fill:rgb(18.039216%,20.392157%,21.176471%);fill-opacity:1;" d="M 7.917969 1 C 6.300781 1 5 2.300781 5 3.917969 L 5 5 C 4.753906 5.007812 4.515625 5.105469 4.335938 5.277344 L 10.0625 11 L 10.96875 11 C 11.539062 11 12 10.539062 12 9.96875 L 12 6.03125 C 12.007812 5.46875 11.5625 5.007812 11 5 L 11 3.917969 C 11 2.300781 9.699219 1 8.082031 1 Z M 8 3 C 8.554688 3 9 3.445312 9 4 L 9 5 L 7 5 L 7 4 C 7 3.445312 7.445312 3 8 3 Z M 4 7.0625 L 4 9.96875 C 4 10.539062 4.460938 11 5.03125 11 L 7 11 L 7 12.21875 C 6.683594 12.398438 6.421875 12.660156 6.242188 12.976562 L 2.996094 12.976562 C 2.445312 12.976562 1.996094 13.425781 1.996094 13.976562 C 1.996094 14.527344 2.445312 14.976562 2.996094 14.976562 L 6.28125 14.976562 C 6.644531 15.578125 7.292969 15.949219 7.996094 15.949219 C 8.699219 15.949219 9.351562 15.578125 9.714844 14.976562 L 11.914062 14.976562 L 9.914062 12.976562 L 9.75 12.976562 C 9.570312 12.664062 9.3125 12.402344 9 12.222656 L 9 12.0625 Z M 7.996094 12.9375 C 8.550781 12.9375 9.003906 13.386719 9 13.941406 C 9.003906 14.5 8.550781 14.949219 7.996094 14.949219 C 7.441406 14.949219 6.988281 14.5 6.988281 13.941406 C 6.988281 13.386719 7.441406 12.9375 7.996094 12.9375 Z M 12.039062 12.976562 L 13.71875 14.660156 C 13.902344 14.476562 14.003906 14.234375 14.007812 13.976562 C 14.007812 13.425781 13.558594 12.976562 13.007812 12.976562 Z M 12.039062 12.976562 "/>
<path style=" stroke:none;fill-rule:nonzero;fill:rgb(18.039216%,20.392157%,21.176471%);fill-opacity:1;" d="M 1.53125 0.457031 L 0.46875 1.519531 L 14.46875 15.519531 L 15.53125 14.457031 Z M 1.53125 0.457031 "/>
</g>
</svg>
